third_party/noto/noto_2/emoji_u1f193.svg

<svg enable-background="new 0 0 128 128" version="1.1" viewBox="0 0 128 128" xmlns="http://www.w3.org/2000/svg"><path d="m116 4h-104c-4.42 0-8 3.58-8 8v104c0 4.42 3.58 8 8 8h104c4.42 0 8-3.58 8-8v-104c0-4.42-3.58-8-8-8z" fill="#427687"/><path d="m109.7 4h-98.2c-4.13 0.03-7.47 3.37-7.5 7.5v97.9c-0.01 4.14 3.34 7.49 7.48 7.5h0.02 98.1c4.14 0.01 7.49-3.34 7.5-7.48v-0.02-97.9c0.09-4.05-3.13-7.41-7.18-7.5h-0.22z" fill="#8CAFBF"/><path d="m39.7 12.9c0-2.3-1.6-3-10.8-2.7-7.7 0.3-11.5 1.2-13.8 4s-2.9 8.5-3 15.3c0 4.8 0 9.3 2.5 9.3 3.4 0 3.4-7.9 6.2-12.3 5.4-8.7 18.9-10.6 18.9-13.6z" enable-background="new" fill="#fff" opacity=".3"/><g fill="#FAFAFA"><path d="M19.15,80.3h-6.7V48.18h18.41v5.58H19.15v8.28h10.9v5.56h-10.9V80.3z"/><path d="m43.51 67.98v12.32h-6.81v-32.12h9.36c4.37 0 7.6 0.79 9.69 2.38s3.14 4 3.14 7.24c0 1.89-0.52 3.57-1.56 5.04s-2.51 2.62-4.42 3.46l9.45 14h-7.56l-7.67-12.33h-3.62zm0-5.54h2.2c2.15 0 3.74-0.36 4.77-1.08s1.54-1.85 1.54-3.38c0-1.52-0.52-2.61-1.57-3.25s-2.67-0.97-4.87-0.97h-2.07v8.68z"/><path d="M84.91,80.3h-18.5V48.18h18.5v5.58H73.22v7.05h10.88v5.58H73.22v8.28h11.69V80.3z"/><path d="M108.86,80.3h-18.5V48.18h18.5v5.58H97.17v7.05h10.88v5.58H97.17v8.28h11.69V80.3z"/></g></svg>

<?xml version="1.0" encoding="utf-8"?>
<!-- Generator: Adobe Illustrator 25.2.3, SVG Export Plug-In . SVG Version: 6.00 Build 0)  -->
<svg version="1.1" id="Layer_2" xmlns="http://www.w3.org/2000/svg" xmlns:xlink="http://www.w3.org/1999/xlink" x="0px" y="0px"
	 viewBox="0 0 128 128" style="enable-background:new 0 0 128 128;" xml:space="preserve">
<g>
	<path style="fill:#427687;" d="M116,4H12c-4.42,0-8,3.58-8,8v104c0,4.42,3.58,8,8,8h104c4.42,0,8-3.58,8-8V12
		C124,7.58,120.42,4,116,4z"/>
	<path style="fill:#8CAFBF;" d="M109.7,4H11.5C7.37,4.03,4.03,7.37,4,11.5v97.9c-0.01,4.14,3.34,7.49,7.48,7.5c0.01,0,0.01,0,0.02,0
		h98.1c4.14,0.01,7.49-3.34,7.5-7.48c0-0.01,0-0.01,0-0.02V11.5c0.09-4.05-3.13-7.41-7.18-7.5C109.85,4,109.77,4,109.7,4z"/>
	<path style="opacity:0.3;fill:#FFFFFF;enable-background:new    ;" d="M39.7,12.9c0-2.3-1.6-3-10.8-2.7c-7.7,0.3-11.5,1.2-13.8,4
		s-2.9,8.5-3,15.3c0,4.8,0,9.3,2.5,9.3c3.4,0,3.4-7.9,6.2-12.3C26.2,17.8,39.7,15.9,39.7,12.9z"/>
</g>
<g>
	<path style="fill:#FAFAFA;" d="M19.15,80.3h-6.7V48.18h18.41v5.58H19.15v8.28h10.9v5.56h-10.9V80.3z"/>
	<path style="fill:#FAFAFA;" d="M43.51,67.98V80.3H36.7V48.18h9.36c4.37,0,7.6,0.79,9.69,2.38c2.09,1.59,3.14,4,3.14,7.24
		c0,1.89-0.52,3.57-1.56,5.04c-1.04,1.47-2.51,2.62-4.42,3.46l9.45,14H54.8l-7.67-12.33H43.51z M43.51,62.44h2.2
		c2.15,0,3.74-0.36,4.77-1.08s1.54-1.85,1.54-3.38c0-1.52-0.52-2.61-1.57-3.25c-1.05-0.64-2.67-0.97-4.87-0.97h-2.07V62.44z"/>
	<path style="fill:#FAFAFA;" d="M84.91,80.3h-18.5V48.18h18.5v5.58H73.22v7.05h10.88v5.58H73.22v8.28h11.69V80.3z"/>
	<path style="fill:#FAFAFA;" d="M108.86,80.3h-18.5V48.18h18.5v5.58H97.17v7.05h10.88v5.58H97.17v8.28h11.69V80.3z"/>
</g>
</svg>
